build/img/bg-sidebar.svg

<svg width="90" height="957" viewBox="0 0 90 957" fill="none" xmlns="http://www.w3.org/2000/svg">
<mask id="path-1-inside-1_2324_37278" fill="white">
<path fill-rule="evenodd" clip-rule="evenodd" d="M0 16C0 7.16345 7.16344 0 16 0H74C82.8366 0 90 7.16344 90 16V88.4626C90 89.9231 88.8161 91.107 87.3556 91.107C86.3166 91.107 85.4134 90.455 84.7104 89.6899C83.6928 88.5823 82.2085 87.8845 80.5556 87.8845C77.4873 87.8845 75 90.2891 75 93.2554C75 96.2217 77.4873 98.6263 80.5556 98.6263C82.2085 98.6263 83.6928 97.9284 84.7104 96.8209C85.4134 96.0558 86.3166 95.4037 87.3556 95.4037C88.8161 95.4037 90 96.5877 90 98.0481V856.526C90 857.988 88.8147 859.173 87.3526 859.173C86.3149 859.173 85.4124 858.523 84.7068 857.762C83.6892 856.665 82.2065 855.974 80.5556 855.974C77.4873 855.974 75 858.361 75 861.306C75 864.251 77.4873 866.639 80.5556 866.639C82.2065 866.639 83.6892 865.948 84.7068 864.85C85.4123 864.089 86.3149 863.439 87.3526 863.439C88.8147 863.439 90 864.625 90 866.087V941C90 949.837 82.8366 957 74 957H16C7.16344 957 0 949.837 0 941V866.086C0 864.624 1.18529 863.438 2.64743 863.438C3.68509 863.438 4.58764 864.088 5.29318 864.849C6.31075 865.947 7.7935 866.638 9.44445 866.638C12.5127 866.638 15 864.25 15 861.305C15 858.36 12.5127 855.973 9.44445 855.973C7.79351 855.973 6.31077 856.664 5.2932 857.761C4.58766 858.522 3.6851 859.172 2.64744 859.172C1.1853 859.172 0 857.987 0 856.525V98.0477C0 96.5872 1.18392 95.4033 2.64437 95.4033C3.68341 95.4033 4.58656 96.0553 5.28956 96.8204C6.30723 97.928 7.79154 98.6259 9.44445 98.6259C12.5127 98.6259 15 96.2212 15 93.255C15 90.2887 12.5127 87.884 9.44445 87.884C7.79154 87.884 6.30723 88.5819 5.28956 89.6895C4.58656 90.4546 3.68341 91.1066 2.64437 91.1066C1.18392 91.1066 0 89.9227 0 88.4622V16Z"/>
</mask>
<path fill-rule="evenodd" clip-rule="evenodd" d="M0 16C0 7.16345 7.16344 0 16 0H74C82.8366 0 90 7.16344 90 16V88.4626C90 89.9231 88.8161 91.107 87.3556 91.107C86.3166 91.107 85.4134 90.455 84.7104 89.6899C83.6928 88.5823 82.2085 87.8845 80.5556 87.8845C77.4873 87.8845 75 90.2891 75 93.2554C75 96.2217 77.4873 98.6263 80.5556 98.6263C82.2085 98.6263 83.6928 97.9284 84.7104 96.8209C85.4134 96.0558 86.3166 95.4037 87.3556 95.4037C88.8161 95.4037 90 96.5877 90 98.0481V856.526C90 857.988 88.8147 859.173 87.3526 859.173C86.3149 859.173 85.4124 858.523 84.7068 857.762C83.6892 856.665 82.2065 855.974 80.5556 855.974C77.4873 855.974 75 858.361 75 861.306C75 864.251 77.4873 866.639 80.5556 866.639C82.2065 866.639 83.6892 865.948 84.7068 864.85C85.4123 864.089 86.3149 863.439 87.3526 863.439C88.8147 863.439 90 864.625 90 866.087V941C90 949.837 82.8366 957 74 957H16C7.16344 957 0 949.837 0 941V866.086C0 864.624 1.18529 863.438 2.64743 863.438C3.68509 863.438 4.58764 864.088 5.29318 864.849C6.31075 865.947 7.7935 866.638 9.44445 866.638C12.5127 866.638 15 864.25 15 861.305C15 858.36 12.5127 855.973 9.44445 855.973C7.79351 855.973 6.31077 856.664 5.2932 857.761C4.58766 858.522 3.6851 859.172 2.64744 859.172C1.1853 859.172 0 857.987 0 856.525V98.0477C0 96.5872 1.18392 95.4033 2.64437 95.4033C3.68341 95.4033 4.58656 96.0553 5.28956 96.8204C6.30723 97.928 7.79154 98.6259 9.44445 98.6259C12.5127 98.6259 15 96.2212 15 93.255C15 90.2887 12.5127 87.884 9.44445 87.884C7.79154 87.884 6.30723 88.5819 5.28956 89.6895C4.58656 90.4546 3.68341 91.1066 2.64437 91.1066C1.18392 91.1066 0 89.9227 0 88.4622V16Z" fill="#F2F3F7"/>
<path d="M5.28956 96.8204L3.81684 98.1736L5.28956 96.8204ZM5.29318 864.849L3.82663 866.209L5.29318 864.849ZM84.7068 857.762L86.1734 856.403L84.7068 857.762ZM5.28956 89.6895L3.81684 88.3363L5.28956 89.6895ZM5.2932 857.761L6.75975 859.121L5.2932 857.761ZM84.7068 864.85L83.2402 863.49L84.7068 864.85ZM84.7104 89.6899L83.2377 91.0431L84.7104 89.6899ZM84.7104 96.8209L86.1832 98.174L84.7104 96.8209ZM16 -2C6.05887 -2 -2 6.05889 -2 16H2C2 8.26802 8.26802 2 16 2V-2ZM74 -2H16V2H74V-2ZM92 16C92 6.05887 83.9411 -2 74 -2V2C81.732 2 88 8.26801 88 16H92ZM92 88.4626V16H88V88.4626H92ZM80.5556 89.8845C81.6372 89.8845 82.591 90.3392 83.2377 91.0431L86.1832 88.3367C84.7945 86.8254 82.7797 85.8845 80.5556 85.8845V89.8845ZM77 93.2554C77 91.4569 78.5276 89.8845 80.5556 89.8845V85.8845C76.447 85.8845 73 89.1214 73 93.2554H77ZM80.5556 96.6263C78.5276 96.6263 77 95.0539 77 93.2554H73C73 97.3894 76.447 100.626 80.5556 100.626V96.6263ZM83.2377 95.4677C82.591 96.1715 81.6372 96.6263 80.5556 96.6263V100.626C82.7797 100.626 84.7945 99.6853 86.1832 98.174L83.2377 95.4677ZM92 856.526V98.0481H88V856.526H92ZM80.5556 857.974C81.6409 857.974 82.595 858.426 83.2403 859.122L86.1734 856.403C84.7834 854.904 82.7721 853.974 80.5556 853.974V857.974ZM77 861.306C77 859.542 78.5139 857.974 80.5556 857.974V853.974C76.4607 853.974 73 857.18 73 861.306H77ZM80.5556 864.639C78.5139 864.639 77 863.07 77 861.306H73C73 865.432 76.4607 868.639 80.5556 868.639V864.639ZM83.2402 863.49C82.595 864.186 81.6409 864.639 80.5556 864.639V868.639C82.7721 868.639 84.7834 867.709 86.1733 866.21L83.2402 863.49ZM92 941V866.087H88V941H92ZM74 959C83.9411 959 92 950.941 92 941H88C88 948.732 81.732 955 74 955V959ZM16 959H74V955H16V959ZM-2 941C-2 950.941 6.05887 959 16 959V955C8.26801 955 2 948.732 2 941H-2ZM-2 866.086V941H2V866.086H-2ZM9.44445 864.638C8.35907 864.638 7.40495 864.185 6.75973 863.489L3.82663 866.209C5.21655 867.708 7.22793 868.638 9.44445 868.638V864.638ZM13 861.305C13 863.069 11.4861 864.638 9.44445 864.638V868.638C13.5393 868.638 17 865.431 17 861.305H13ZM9.44445 857.973C11.4861 857.973 13 859.541 13 861.305H17C17 857.179 13.5393 853.973 9.44445 853.973V857.973ZM6.75975 859.121C7.40497 858.425 8.35908 857.973 9.44445 857.973V853.973C7.22794 853.973 5.21656 854.902 3.82665 856.401L6.75975 859.121ZM-2 98.0477V856.525H2V98.0477H-2ZM9.44445 96.6259C8.36276 96.6259 7.409 96.1711 6.76228 95.4673L3.81684 98.1736C5.20547 99.6849 7.22033 100.626 9.44445 100.626V96.6259ZM13 93.255C13 95.0535 11.4724 96.6259 9.44445 96.6259V100.626C13.553 100.626 17 97.389 17 93.255H13ZM9.44445 89.884C11.4724 89.884 13 91.4564 13 93.255H17C17 89.1209 13.553 85.884 9.44445 85.884V89.884ZM6.76228 91.0426C7.409 90.3388 8.36276 89.884 9.44445 89.884V85.884C7.22033 85.884 5.20547 86.825 3.81684 88.3363L6.76228 91.0426ZM-2 16V88.4622H2V16H-2ZM2.64437 97.4033C2.83517 97.4033 3.23909 97.5448 3.81684 98.1736L6.76228 95.4673C5.93402 94.5658 4.53166 93.4033 2.64437 93.4033V97.4033ZM2 98.0477C2 97.6918 2.28849 97.4033 2.64437 97.4033V93.4033C0.0793558 93.4033 -2 95.4827 -2 98.0477H2ZM87.3526 865.439C87.7101 865.439 88 865.729 88 866.087H92C92 863.52 89.9193 861.439 87.3526 861.439V865.439ZM2.64743 865.438C2.83938 865.438 3.2435 865.58 3.82663 866.209L6.75973 863.489C5.93179 862.596 4.53081 861.438 2.64743 861.438V865.438ZM2.64437 89.1066C2.28849 89.1066 2 88.8181 2 88.4622H-2C-2 91.0272 0.0793554 93.1066 2.64437 93.1066V89.1066ZM87.3526 857.173C87.1606 857.173 86.7565 857.031 86.1734 856.403L83.2403 859.122C84.0682 860.015 85.4692 861.173 87.3526 861.173V857.173ZM2 866.086C2 865.728 2.28986 865.438 2.64743 865.438V861.438C0.0807249 861.438 -2 863.519 -2 866.086H2ZM3.81684 88.3363C3.23909 88.9651 2.83517 89.1066 2.64437 89.1066V93.1066C4.53165 93.1066 5.93402 91.9441 6.76228 91.0426L3.81684 88.3363ZM88 856.526C88 856.883 87.7101 857.173 87.3526 857.173V861.173C89.9193 861.173 92 859.093 92 856.526H88ZM87.3556 97.4037C87.7115 97.4037 88 97.6922 88 98.0481H92C92 95.4831 89.9206 93.4037 87.3556 93.4037V97.4037ZM88 88.4626C88 88.8185 87.7115 89.107 87.3556 89.107V93.107C89.9206 93.107 92 91.0277 92 88.4626H88ZM3.82665 856.401C3.24351 857.03 2.83939 857.172 2.64744 857.172V861.172C4.53082 861.172 5.9318 860.014 6.75975 859.121L3.82665 856.401ZM86.1733 866.21C86.7565 865.581 87.1606 865.439 87.3526 865.439V861.439C85.4692 861.439 84.0682 862.598 83.2402 863.49L86.1733 866.21ZM2.64744 857.172C2.28989 857.172 2 856.882 2 856.525H-2C-2 859.091 0.0807108 861.172 2.64744 861.172V857.172ZM87.3556 89.107C87.1648 89.107 86.7609 88.9655 86.1832 88.3367L83.2377 91.0431C84.066 91.9445 85.4683 93.107 87.3556 93.107V89.107ZM86.1832 98.174C86.7609 97.5453 87.1648 97.4037 87.3556 97.4037V93.4037C85.4683 93.4037 84.066 94.5663 83.2377 95.4677L86.1832 98.174Z" fill="url(#paint0_linear_2324_37278)" mask="url(#path-1-inside-1_2324_37278)"/>
<defs>
<linearGradient id="paint0_linear_2324_37278" x1="52.875" y1="1487.84" x2="52.8727" y2="-538.313" gradientUnits="userSpaceOnUse">
<stop offset="0.0388586" stop-color="#B9C4D2"/>
<stop offset="0.451042" stop-color="#EEF5FD" stop-opacity="0"/>
<stop offset="1" stop-color="white"/>
</linearGradient>
</defs>
</svg>

<svg width="90" height="957" fill="none" xmlns="http://www.w3.org/2000/svg"><mask id="a" fill="#fff"><path fill-rule="evenodd" clip-rule="evenodd" d="M0 16C0 7.163 7.163 0 16 0h58c8.837 0 16 7.163 16 16v72.463a2.644 2.644 0 01-2.644 2.644c-1.04 0-1.943-.652-2.646-1.417a5.626 5.626 0 00-4.154-1.805c-3.069 0-5.556 2.404-5.556 5.37 0 2.967 2.487 5.371 5.556 5.371a5.626 5.626 0 004.154-1.805c.703-.765 1.607-1.417 2.646-1.417A2.644 2.644 0 0190 98.048v758.478a2.647 2.647 0 01-2.647 2.647c-1.038 0-1.94-.65-2.646-1.411a5.646 5.646 0 00-4.151-1.788c-3.069 0-5.556 2.387-5.556 5.332s2.487 5.333 5.556 5.333a5.64 5.64 0 004.15-1.789c.706-.761 1.609-1.411 2.647-1.411A2.648 2.648 0 0190 866.087V941c0 8.837-7.163 16-16 16H16c-8.837 0-16-7.163-16-16v-74.914a2.648 2.648 0 012.647-2.648c1.038 0 1.94.65 2.646 1.411a5.643 5.643 0 004.151 1.789c3.069 0 5.556-2.388 5.556-5.333 0-2.945-2.487-5.332-5.556-5.332-1.65 0-3.133.691-4.15 1.788-.706.761-1.609 1.411-2.647 1.411A2.647 2.647 0 010 856.525V98.048a2.644 2.644 0 012.644-2.645c1.04 0 1.943.652 2.646 1.417a5.626 5.626 0 004.154 1.806c3.069 0 5.556-2.405 5.556-5.371 0-2.966-2.487-5.371-5.556-5.371a5.626 5.626 0 00-4.154 1.805c-.703.766-1.607 1.418-2.646 1.418A2.644 2.644 0 010 88.462V16z"/></mask><path fill-rule="evenodd" clip-rule="evenodd" d="M0 16C0 7.163 7.163 0 16 0h58c8.837 0 16 7.163 16 16v72.463a2.644 2.644 0 01-2.644 2.644c-1.04 0-1.943-.652-2.646-1.417a5.626 5.626 0 00-4.154-1.805c-3.069 0-5.556 2.404-5.556 5.37 0 2.967 2.487 5.371 5.556 5.371a5.626 5.626 0 004.154-1.805c.703-.765 1.607-1.417 2.646-1.417A2.644 2.644 0 0190 98.048v758.478a2.647 2.647 0 01-2.647 2.647c-1.038 0-1.94-.65-2.646-1.411a5.646 5.646 0 00-4.151-1.788c-3.069 0-5.556 2.387-5.556 5.332s2.487 5.333 5.556 5.333a5.64 5.64 0 004.15-1.789c.706-.761 1.609-1.411 2.647-1.411A2.648 2.648 0 0190 866.087V941c0 8.837-7.163 16-16 16H16c-8.837 0-16-7.163-16-16v-74.914a2.648 2.648 0 012.647-2.648c1.038 0 1.94.65 2.646 1.411a5.643 5.643 0 004.151 1.789c3.069 0 5.556-2.388 5.556-5.333 0-2.945-2.487-5.332-5.556-5.332-1.65 0-3.133.691-4.15 1.788-.706.761-1.609 1.411-2.647 1.411A2.647 2.647 0 010 856.525V98.048a2.644 2.644 0 012.644-2.645c1.04 0 1.943.652 2.646 1.417a5.626 5.626 0 004.154 1.806c3.069 0 5.556-2.405 5.556-5.371 0-2.966-2.487-5.371-5.556-5.371a5.626 5.626 0 00-4.154 1.805c-.703.766-1.607 1.418-2.646 1.418A2.644 2.644 0 010 88.462V16z" fill="#F2F3F7"/><path d="M5.29 96.82l-1.473 1.354L5.29 96.82zm.003 768.029l-1.466 1.36 1.466-1.36zm79.414-7.087l1.466-1.359-1.466 1.359zM5.29 89.69l-1.473-1.354L5.29 89.69zm.003 768.071l1.467 1.36-1.467-1.36zm79.414 7.089l-1.467-1.36 1.467 1.36zm.003-775.16l-1.472 1.353 1.472-1.353zm0 7.13l1.473 1.354-1.473-1.353zM16-2C6.059-2-2 6.059-2 16h4C2 8.268 8.268 2 16 2v-4zm58 0H16v4h58v-4zm18 18c0-9.941-8.059-18-18-18v4c7.732 0 14 6.268 14 14h4zm0 72.463V16h-4v72.463h4zm-11.444 1.422c1.081 0 2.035.454 2.682 1.158l2.945-2.706a7.626 7.626 0 00-5.627-2.453v4zM77 93.255c0-1.798 1.528-3.37 3.556-3.37v-4c-4.109 0-7.556 3.236-7.556 7.37h4zm3.556 3.371c-2.028 0-3.556-1.572-3.556-3.37h-4c0 4.133 3.447 7.37 7.556 7.37v-4zm2.682-1.158a3.626 3.626 0 01-2.682 1.158v4c2.224 0 4.239-.94 5.627-2.452l-2.945-2.706zM92 856.526V98.048h-4v758.478h4zm-11.444 1.448c1.085 0 2.039.452 2.684 1.148l2.933-2.719a7.645 7.645 0 00-5.617-2.429v4zM77 861.306c0-1.764 1.514-3.332 3.556-3.332v-4c-4.095 0-7.556 3.206-7.556 7.332h4zm3.556 3.333c-2.042 0-3.556-1.569-3.556-3.333h-4c0 4.126 3.46 7.333 7.556 7.333v-4zm2.684-1.149a3.645 3.645 0 01-2.684 1.149v4c2.216 0 4.227-.93 5.617-2.429l-2.933-2.72zM92 941v-74.913h-4V941h4zm-18 18c9.941 0 18-8.059 18-18h-4c0 7.732-6.268 14-14 14v4zm-58 0h58v-4H16v4zm-18-18c0 9.941 8.059 18 18 18v-4c-7.732 0-14-6.268-14-14h-4zm0-74.914V941h4v-74.914h-4zm11.444-1.448a3.645 3.645 0 01-2.684-1.149l-2.933 2.72a7.645 7.645 0 005.617 2.429v-4zM13 861.305c0 1.764-1.514 3.333-3.556 3.333v4c4.095 0 7.556-3.207 7.556-7.333h-4zm-3.556-3.332c2.042 0 3.556 1.568 3.556 3.332h4c0-4.126-3.46-7.332-7.556-7.332v4zm-2.684 1.148a3.644 3.644 0 012.684-1.148v-4a7.644 7.644 0 00-5.617 2.428l2.933 2.72zM-2 98.048v758.477h4V98.048h-4zm11.444-1.422a3.627 3.627 0 01-2.682-1.159l-2.945 2.707a7.626 7.626 0 005.627 2.452v-4zM13 93.255c0 1.799-1.528 3.37-3.556 3.37v4.001c4.109 0 7.556-3.237 7.556-7.371h-4zm-3.556-3.371c2.028 0 3.556 1.572 3.556 3.371h4c0-4.134-3.447-7.371-7.556-7.371v4zm-2.682 1.159a3.627 3.627 0 012.682-1.159v-4a7.626 7.626 0 00-5.627 2.452l2.945 2.707zM-2 16v72.462h4V16h-4zm4.644 81.403c.191 0 .595.142 1.173.77l2.945-2.706c-.828-.901-2.23-2.064-4.118-2.064v4zM2 98.048c0-.356.288-.645.644-.645v-4A4.644 4.644 0 00-2 98.048h4zm85.353 767.391c.357 0 .647.29.647.648h4a4.648 4.648 0 00-4.647-4.648v4zm-84.706-.001c.192 0 .597.142 1.18.771l2.933-2.72c-.828-.893-2.23-2.051-4.113-2.051v4zM2.644 89.107A.644.644 0 012 88.462h-4a4.644 4.644 0 004.644 4.645v-4zm84.709 768.066c-.192 0-.596-.142-1.18-.77l-2.933 2.719c.828.893 2.23 2.051 4.113 2.051v-4zM2 866.086c0-.358.29-.648.647-.648v-4A4.648 4.648 0 00-2 866.086h4zm1.817-777.75c-.578.63-.982.77-1.173.77v4c1.888 0 3.29-1.162 4.118-2.063l-2.945-2.707zM88 856.526c0 .357-.29.647-.647.647v4A4.647 4.647 0 0092 856.526h-4zm-.644-759.122c.356 0 .644.288.644.644h4a4.644 4.644 0 00-4.644-4.644v4zM88 88.463a.644.644 0 01-.644.644v4A4.644 4.644 0 0092 88.463h-4zM3.827 856.4c-.583.629-.988.771-1.18.771v4c1.884 0 3.285-1.158 4.113-2.051l-2.933-2.72zm82.346 9.809c.584-.629.988-.771 1.18-.771v-4c-1.884 0-3.285 1.159-4.113 2.051l2.933 2.72zm-83.526-9.038a.647.647 0 01-.647-.647h-4a4.648 4.648 0 004.647 4.647v-4zM87.356 89.107c-.191 0-.595-.141-1.173-.77l-2.945 2.706c.828.901 2.23 2.064 4.118 2.064v-4zm-1.173 9.067c.578-.629.982-.77 1.173-.77v-4c-1.888 0-3.29 1.162-4.118 2.064l2.945 2.706z" fill="url(#paint0_linear_2324_37278)" mask="url(#a)"/><defs><linearGradient id="paint0_linear_2324_37278" x1="52.875" y1="1487.84" x2="52.873" y2="-538.313" gradientUnits="userSpaceOnUse"><stop offset=".039" stop-color="#B9C4D2"/><stop offset=".451" stop-color="#EEF5FD" stop-opacity="0"/><stop offset="1" stop-color="#fff"/></linearGradient></defs></svg>
